packages/core/assets/Icons/arrow_angle_up_right.svg

<svg viewBox="0 0 20 20" fill="none" xmlns="http://www.w3.org/2000/svg">
<path d="M13.4791 8.33331H5.83329V15.8333C5.83329 16.0694 5.75343 16.2673 5.59371 16.4271C5.43399 16.5868 5.23607 16.6666 4.99996 16.6666C4.76385 16.6666 4.56593 16.5868 4.40621 16.4271C4.24649 16.2673 4.16663 16.0694 4.16663 15.8333V8.33331C4.16663 7.87498 4.32982 7.48262 4.65621 7.15623C4.9826 6.82984 5.37496 6.66665 5.83329 6.66665H13.4791L11.0833 4.27081C10.9166 4.10415 10.8298 3.90623 10.8229 3.67706C10.8159 3.4479 10.8958 3.24998 11.0625 3.08331C11.2291 2.91665 11.427 2.83331 11.6562 2.83331C11.8854 2.83331 12.0833 2.91665 12.25 3.08331L16.0833 6.91665C16.1666 6.99998 16.2257 7.09026 16.2604 7.18748C16.2951 7.2847 16.3125 7.38887 16.3125 7.49998C16.3125 7.61109 16.2951 7.71526 16.2604 7.81248C16.2257 7.9097 16.1666 7.99998 16.0833 8.08331L12.2291 11.9375C12.0625 12.1041 11.868 12.184 11.6458 12.1771C11.4236 12.1701 11.2291 12.0833 11.0625 11.9166C10.9097 11.75 10.8298 11.5555 10.8229 11.3333C10.8159 11.1111 10.8958 10.9166 11.0625 10.75L13.4791 8.33331Z" fill="currentColor"/>
</svg>

<svg xmlns="http://www.w3.org/2000/svg" width="20" height="20" fill="none" viewBox="0 0 20 20">
  <path fill="#201F1F" d="M13.48 8.333H5.832v7.5c0 .236-.08.434-.24.594a.806.806 0 0 1-.593.24.806.806 0 0 1-.594-.24.807.807 0 0 1-.24-.594v-7.5c0-.458.164-.85.49-1.177.327-.326.719-.49 1.177-.49h7.646l-2.396-2.395a.85.85 0 0 1-.26-.594.775.775 0 0 1 .24-.594.81.81 0 0 1 .593-.25c.23 0 .427.084.594.25l3.833 3.834a.731.731 0 0 1 .177.27.923.923 0 0 1 .052.313.923.923 0 0 1-.052.312.731.731 0 0 1-.177.271l-3.854 3.854a.764.764 0 0 1-.583.24.839.839 0 0 1-.584-.26.878.878 0 0 1-.24-.584.763.763 0 0 1 .24-.583l2.417-2.417Z"/>
</svg>
